pix_plugins/mod/glossary/icon.svg

<svg xmlns="http://www.w3.org/2000/svg" viewBox="0 0 16 16" enable-background="new 0 0 16 16"><g><circle fill="#EDC92C" cx="8" cy="8.1" r="8"/><path fill="#DADADA" d="M11.8 13.1c0 .6-.4 1-1 1h-7c-.6 0-1-.4-1-1v-10c0-.6.5-1 1-1h7c.6 0 1 .4 1 1v10z"/><path fill="#F5F5F5" d="M12.1 13.2c0 .6-.5 1-1 1h-7c-.6 0-1-.4-1-1v-10.1c0-.6.5-1 1-1h7c.6 0 1 .4 1 1v10.1z"/><path fill="#C9C9C8" d="M11.3 6.2c0 .1-.1.2-.2.2h-6.7c-.1 0-.2-.1-.2-.2s.1-.2.2-.2h6.7c.1-.1.2 0 .2.2zM11.3 7.3c0 .1-.1.2-.2.2h-6.7c-.1 0-.2-.1-.2-.2 0-.2 0-.3.2-.3h6.7c.1 0 .2.1.2.3zM11.3 8.3c0 .1-.1.2-.2.2h-6.7c-.1 0-.2-.1-.2-.2s.1-.2.2-.2h6.7c.1 0 .2.1.2.2zM11.3 9.4c0 .1-.1.2-.2.2h-6.7c-.1 0-.2-.1-.2-.2s.1-.2.2-.2h6.7c.1 0 .2.1.2.2zM7.9 10.3h-3.5c-.1 0-.2.1-.2.2s.1.2.2.2h3.5c.1 0 .2-.1.2-.2s-.1-.2-.2-.2z"/><path fill="#A0E0BD" d="M13.2 12.1c0 .6-.5 1.1-1.1 1.1v-4.1c.6 0 1.1.5 1.1 1.1v1.9z"/><path fill="#46CC8C" d="M13.2 9.2c0 .6-.5 1.1-1.1 1.1v-4.1c.6 0 1.1.5 1.1 1.1v1.9z"/><path fill="#049E54" d="M13.2 5.8c0 .6-.5 1.1-1.1 1.1v-4.1c.6 0 1.1.5 1.1 1.1v1.9z"/></g></svg>

<?xml version="1.0" encoding="utf-8"?>
<!-- Generator: Adobe Illustrator 17.1.0, SVG Export Plug-In . SVG Version: 6.00 Build 0)  -->
<!DOCTYPE svg PUBLIC "-//W3C//DTD SVG 1.1//EN" "http://www.w3.org/Graphics/SVG/1.1/DTD/svg11.dtd">
<svg version="1.1" xmlns="http://www.w3.org/2000/svg" xmlns:xlink="http://www.w3.org/1999/xlink" x="0px" y="0px"
	 viewBox="0 0 16 16" enable-background="new 0 0 16 16" xml:space="preserve">
<g id="forum" display="none">
	<polygon fill="#38A70C" points="15,12.1 8,16.1 1.1,12.1 1.1,4 8,0 15,4 	"/>
	<rect x="2.4" y="4.6" fill="#FFFFFF" width="11.4" height="6.6"/>
	<polyline fill="#FFFFFF" points="6.9,13 6.9,11.2 9.4,11.2 	"/>
	<rect x="1" y="1" fill="#38A70C" width="10.9" height="10.9"/>
	<polyline fill="#38A70C" points="2.5,15.9 2.5,11.9 6.6,11.9 	"/>
	<g>
		<rect x="3.6" y="5.8" display="inline" fill="#B0DD9A" width="9" height="0.8"/>
		<rect x="3.6" y="7.5" display="inline" fill="#B0DD9A" width="9" height="0.8"/>
		<rect x="3.6" y="9.2" display="inline" fill="#B0DD9A" width="9" height="0.8"/>
	</g>
	<g display="inline">
		<g>
			<g>
				<circle fill="#49A0AE" cx="8" cy="7.9" r="7.9"/>
			</g>
		</g>
		<g>
			<g>
				<g>
					<path fill="#DFF1ED" d="M14.3,10.9c0,0.7-0.6,1.3-1.3,1.3H3.1c-0.7,0-1.3-0.6-1.3-1.3V5.1c0-0.7,0.6-1.3,1.3-1.3H13
						c0.7,0,1.3,0.6,1.3,1.3V10.9z"/>
				</g>
				<g>
					<path fill="#DFF1ED" d="M11.3,13.9c-0.1,0.1-0.3,0.1-0.4,0l-1.3-1.8c-0.1-0.1-0.1-0.3,0-0.4h2.9c0.1,0.1,0.1,0.3,0,0.4
						L11.3,13.9z"/>
				</g>
			</g>
			<g>
				<g>
					<path fill="#B7CAC4" d="M12.4,6c0,0.3-0.2,0.5-0.5,0.5H4.1C3.9,6.5,3.6,6.3,3.6,6l0,0c0-0.3,0.2-0.5,0.5-0.5h7.8
						C12.2,5.5,12.4,5.7,12.4,6L12.4,6z"/>
				</g>
				<g>
					<path fill="#B7CAC4" d="M12.4,7.9c0,0.3-0.2,0.5-0.5,0.5H4.1c-0.3,0-0.5-0.2-0.5-0.5l0,0c0-0.3,0.2-0.5,0.5-0.5h7.8
						C12.2,7.4,12.4,7.6,12.4,7.9L12.4,7.9z"/>
				</g>
				<g>
					<path fill="#B7CAC4" d="M12.4,9.8c0,0.3-0.2,0.5-0.5,0.5H4.1c-0.3,0-0.5-0.2-0.5-0.5l0,0c0-0.3,0.2-0.5,0.5-0.5h7.8
						C12.2,9.3,12.4,9.5,12.4,9.8L12.4,9.8z"/>
				</g>
			</g>
		</g>
	</g>
</g>
<g id="chat" display="none">
	<g display="inline">
		<g>
			<g>
				<circle fill="#49A0AE" cx="7.9" cy="8" r="8"/>
			</g>
		</g>
		<g>
			<g>
				<g>
					<path fill="#DFF1ED" d="M14.3,11.1c0,0.7-0.6,1.3-1.3,1.3H3.1c-0.7,0-1.3-0.6-1.3-1.3v-6c0-0.7,0.6-1.3,1.3-1.3H13
						c0.7,0,1.3,0.6,1.3,1.3V11.1z"/>
				</g>
				<g>
					<path fill="#DFF1ED" d="M11.3,14.2c-0.1,0.1-0.3,0.1-0.4,0l-1.3-1.8c-0.1-0.1-0.1-0.3,0-0.4h2.9c0.1,0.1,0.1,0.3,0,0.4
						L11.3,14.2z"/>
				</g>
			</g>
			<g>
				<g>
					<circle fill="#B7CAC4" cx="5.4" cy="8.3" r="0.8"/>
				</g>
				<g>
					<circle fill="#B7CAC4" cx="8" cy="8.3" r="0.8"/>
				</g>
				<g>
					<circle fill="#B7CAC4" cx="10.6" cy="8.3" r="0.8"/>
				</g>
			</g>
		</g>
	</g>
</g>
<g id="assignment" display="none">
	<g display="inline">
		<g>
			<g>
				<circle fill="#4ABC96" cx="8" cy="8" r="7.9"/>
			</g>
		</g>
		<g>
			<g>
				<rect x="3.8" y="2.5" transform="matrix(0.9875 -0.1577 0.1577 0.9875 -1.1641 1.3286)" fill="#FFFFFF" width="8" height="11"/>
				<g>
					
						<rect x="3.8" y="3.6" transform="matrix(0.9875 -0.1578 0.1578 0.9875 -0.5188 1.1642)" fill="#357180" width="6.5" height="0.4"/>
					
						<rect x="4" y="4.7" transform="matrix(0.9875 -0.1577 0.1577 0.9875 -0.6764 1.2061)" fill="#357180" width="6.5" height="0.4"/>
					
						<rect x="4.2" y="5.7" transform="matrix(0.9875 -0.1578 0.1578 0.9875 -0.8445 1.2466)" fill="#357180" width="6.5" height="0.4"/>
					
						<rect x="4.4" y="7" transform="matrix(0.9875 -0.1578 0.1578 0.9875 -1.0617 1.0619)" fill="#357180" width="3.6" height="0.4"/>
				</g>
			</g>
			<g>
				
					<rect x="7.3" y="10.7" transform="matrix(0.9788 0.2046 -0.2046 0.9788 2.391 -1.4762)" fill="#F7D98B" width="2" height="0.2"/>
				<polygon fill="#F7D98B" points="8.9,7.5 7.4,10.5 9.3,10.9 				"/>
				<polygon fill="#626463" points="8.9,7.5 8.3,8.8 9.1,9 				"/>
				<path fill="#F2BE3E" d="M4,36.6C3.9,37,3.5,37,3.1,36.9l-0.5-0.1c-0.4-0.1-0.7-0.2-0.7-0.6l0.1-0.3c0.1-0.4,2,0,1.9,0.4L4,36.6z
					"/>
				
					<rect x="2.2" y="34.8" transform="matrix(0.979 0.2041 -0.2041 0.979 7.2965 9.334454e-02)" fill="#818282" width="2" height="1.3"/>
				
					<rect x="2.3" y="34.8" transform="matrix(0.979 0.2041 -0.2041 0.979 7.186 5.816199e-02)" fill="#A4A5A4" width="2" height="0.2"/>
				
					<rect x="2.2" y="35.2" transform="matrix(0.9789 0.2043 -0.2043 0.9789 7.2812 8.707953e-02)" fill="#A4A5A4" width="2" height="0.2"/>
				
					<rect x="2.1" y="35.7" transform="matrix(0.9789 0.2044 -0.2044 0.9789 7.3763 0.1161)" fill="#A4A5A4" width="2" height="0.2"/>
				<g>
					<polygon fill="#E84849" points="8.9,11 3.9,34.9 4.3,35 9.3,11.1 9.2,10.7 					"/>
					<polygon fill="#E84849" points="7.7,10.8 2.7,34.7 3.2,34.8 8.2,10.9 8,10.5 					"/>
					<polygon fill="#F06668" points="7.3,10.7 2.3,34.6 2.7,34.7 7.7,10.8 7.5,10.4 					"/>
					<polygon fill="#F06668" points="8.2,10.9 3.2,34.8 3.9,34.9 8.9,11 8.6,10.6 					"/>
				</g>
			</g>
		</g>
	</g>
</g>
<g id="wiki" display="none">
	<g display="inline">
		<g>
			<g>
				<g>
					<circle fill="#EFC849" cx="8" cy="8" r="8"/>
				</g>
			</g>
		</g>
		<g>
			<g>
				<g id="Layer_6">
					<g>
						<g>
							<g>
								<g>
									<path fill="#E0E4E3" d="M14.9,4.9c0-0.9-0.7-1.6-1.6-1.6H2.7C1.9,3.3,1.2,4,1.2,4.9v6.6c0,0.9,0.7,1.6,1.6,1.6h10.6
										c0.9,0,1.6-0.7,1.6-1.6L14.9,4.9L14.9,4.9z"/>
								</g>
								<g>
									<g>
										<g>
											<path fill="#D1D3D3" d="M14.9,4.7c-0.1-0.8-0.8-1.4-1.6-1.4H2.7c-0.9,0-1.6,0.7-1.6,1.6v0.3h13.7V4.7z"/>
										</g>
									</g>
									<g>
										<circle fill="#E84849" cx="2.4" cy="4.3" r="0.4"/>
									</g>
									<g>
										<circle fill="#EFC849" cx="3.7" cy="4.3" r="0.4"/>
									</g>
									<g>
										<circle fill="#37B34C" cx="5" cy="4.3" r="0.4"/>
									</g>
								</g>
							</g>
						</g>
					</g>
				</g>
				<g>
					<path fill="#666665" d="M8.3,6.5c0,0.1,0,0.4,0,0.5c0,0.1-0.4,0.2-0.6,0.2H3.1c-0.2,0-0.5-0.1-0.5-0.1C2.5,7.1,2.4,6.7,2.5,6.5
						c0-0.1,0.4-0.2,0.6-0.2h4.7C8,6.3,8.3,6.4,8.3,6.5z"/>
				</g>
				<path fill="#666665" d="M13.6,8.7c0,0.3-0.2,0.5-0.5,0.5H2.9C2.6,9.2,2.4,9,2.4,8.7l0,0c0-0.3,0.2-0.5,0.5-0.5h10.2
					C13.4,8.2,13.6,8.4,13.6,8.7L13.6,8.7z"/>
				<path fill="#666665" d="M13.7,10.6c0,0.3-0.2,0.5-0.5,0.5H2.9c-0.3,0-0.5-0.2-0.5-0.5l0,0c0-0.3,0.2-0.5,0.5-0.5h10.2
					C13.4,10.1,13.7,10.4,13.7,10.6L13.7,10.6z"/>
				<path fill="#FFFFFF" d="M13.7,4.4c0,0.3-0.1,0.5-0.3,0.5H7.3C7.1,4.9,7,4.7,7,4.4l0,0c0-0.3,0.1-0.5,0.3-0.5h6
					C13.5,3.9,13.7,4.1,13.7,4.4L13.7,4.4z"/>
			</g>
			<g>
				<g>
					<g>
						<g>
							<circle fill="#3CB881" cx="12.1" cy="12.1" r="3.7"/>
						</g>
					</g>
				</g>
				<g>
					<g>
						<g>
							<g>
								<polygon fill="#F7D98B" points="14,10.1 10.6,12 10.5,12.2 12.1,13.8 12.3,13.6 								"/>
							</g>
						</g>
						<g>
							<g>
								<polygon fill="#626463" points="14.1,10.1 12.6,10.9 13.3,11.6 								"/>
							</g>
						</g>
						<g>
							<g>
								<g>
									<path fill="#E84849" d="M12.3,13.4l-0.5,0L10,15.2c0.1,0.1,0.3,0.2,0.5,0.3l1.7-1.7L12.3,13.4z"/>
								</g>
							</g>
							<g>
								<g>
									<path fill="#E84849" d="M9.4,14.7l1.8-1.8l0-0.5l-0.5,0L9,14.2C9.1,14.4,9.3,14.5,9.4,14.7z"/>
								</g>
							</g>
							<g>
								<g>
									<path fill="#F06668" d="M10.8,12.4l0.1-0.5l-0.3,0.2l-1.7,1.7C8.8,14,8.9,14.1,9,14.2L10.8,12.4z"/>
								</g>
							</g>
							<g>
								<g>
									<path fill="#F06668" d="M10,15.2l1.8-1.8l0-0.5l-0.5,0l-1.8,1.8C9.6,14.9,9.8,15.1,10,15.2z"/>
								</g>
							</g>
						</g>
					</g>
				</g>
			</g>
		</g>
	</g>
</g>
<g id="glossary">
	<g>
		<g>
			<circle fill="#EDC92C" cx="8" cy="8.1" r="8"/>
		</g>
		<g>
			<g>
				<g>
					<path fill="#DADADA" d="M11.8,13.1c0,0.6-0.4,1-1,1h-7c-0.6,0-1-0.4-1-1V3.1c0-0.6,0.5-1,1-1h7c0.6,0,1,0.4,1,1V13.1z"/>
				</g>
				<g>
					<path fill="#F5F5F5" d="M12.1,13.2c0,0.6-0.5,1-1,1h-7c-0.6,0-1-0.4-1-1V3.1c0-0.6,0.5-1,1-1h7c0.6,0,1,0.4,1,1V13.2z"/>
				</g>
				<g>
					<g>
						<g>
							<path fill="#C9C9C8" d="M11.3,6.2c0,0.1-0.1,0.2-0.2,0.2H4.4c-0.1,0-0.2-0.1-0.2-0.2l0,0c0-0.1,0.1-0.2,0.2-0.2h6.7
								C11.2,5.9,11.3,6,11.3,6.2L11.3,6.2z"/>
						</g>
					</g>
					<g>
						<g>
							<path fill="#C9C9C8" d="M11.3,7.3c0,0.1-0.1,0.2-0.2,0.2H4.4c-0.1,0-0.2-0.1-0.2-0.2l0,0C4.2,7.1,4.2,7,4.4,7h6.7
								C11.2,7,11.3,7.1,11.3,7.3L11.3,7.3z"/>
						</g>
					</g>
					<g>
						<g>
							<path fill="#C9C9C8" d="M11.3,8.3c0,0.1-0.1,0.2-0.2,0.2H4.4c-0.1,0-0.2-0.1-0.2-0.2l0,0c0-0.1,0.1-0.2,0.2-0.2h6.7
								C11.2,8.1,11.3,8.2,11.3,8.3L11.3,8.3z"/>
						</g>
					</g>
					<g>
						<g>
							<path fill="#C9C9C8" d="M11.3,9.4c0,0.1-0.1,0.2-0.2,0.2H4.4c-0.1,0-0.2-0.1-0.2-0.2l0,0c0-0.1,0.1-0.2,0.2-0.2h6.7
								C11.2,9.2,11.3,9.3,11.3,9.4L11.3,9.4z"/>
						</g>
					</g>
					<g>
						<g>
							<path fill="#C9C9C8" d="M7.9,10.3H4.4c-0.1,0-0.2,0.1-0.2,0.2c0,0.1,0.1,0.2,0.2,0.2h3.5c0.1,0,0.2-0.1,0.2-0.2
								C8.1,10.4,8,10.3,7.9,10.3z"/>
						</g>
					</g>
				</g>
			</g>
			<g>
				<path fill="#A0E0BD" d="M13.2,12.1c0,0.6-0.5,1.1-1.1,1.1l0,0l0-4.1l0,0c0.6,0,1.1,0.5,1.1,1.1L13.2,12.1z"/>
				<path fill="#46CC8C" d="M13.2,9.2c0,0.6-0.5,1.1-1.1,1.1l0,0l0-4.1l0,0c0.6,0,1.1,0.5,1.1,1.1L13.2,9.2z"/>
				<path fill="#049E54" d="M13.2,5.8c0,0.6-0.5,1.1-1.1,1.1l0,0l0-4.1l0,0c0.6,0,1.1,0.5,1.1,1.1L13.2,5.8z"/>
			</g>
		</g>
	</g>
</g>
</svg>
